svgs/sharp-solid/sidebar.svg

<svg xmlns="http://www.w3.org/2000/svg" viewBox="0 0 512 512"><!--! Font Awesome Pro 6.6.0 by @fontawesome - https://fontawesome.com License - https://fontawesome.com/license (Commercial License) Copyright 2024 Fonticons, Inc. --><path d="M0 32l512 0 0 448L0 480 0 32zM224 96l0 320 224 0 0-320L224 96zm-64 0L64 96l0 48 96 0 0-48zM64 192l0 48 96 0 0-48-96 0zm96 96l-96 0 0 48 96 0 0-48z"/></svg>

<svg xmlns="http://www.w3.org/2000/svg" viewBox="0 0 512 512"><!--! Font Awesome Pro 6.4.0 by @fontawesome - https://fontawesome.com License - https://fontawesome.com/license (Commercial License) Copyright 2023 Fonticons, Inc. --><path d="M0 32H512V480H0V32zM224 96V416H448V96H224zm-64 0H64v48h96V96zM64 192v48h96V192H64zm96 96H64v48h96V288z"/></svg>
